X: 113
%
U:~=!turn!
T: College Hornpipe
C:
O:Scotland
B:Keith Norman MacDonald : "The Skye collection of the best reels & strathspeys extant" : 1887
Z:Ralph Palmer
R:Hornpipe
M:C
L:1/8
K:Bb
(BA) | TB2 B,2 B,2 (FE) | DF B2 ~B2 (dB) | c2 C2 C2 (cB) | (Ac) f2 ~f2 (ga) | bagf gfed |
(ed)cB TBAGF | GBAc Bdce | d2 B2 ~B2 :: (FE) | DFBF DFBF | {/^F}G2 E2 E2 GF |
=EGcG EGcG | A2 F2 F2 (ed) | e2 g2 gfed | edcB BAGF | GBAc Bdce | d2 [D2B2] [D2B2] :|


